X:134
T:Neili Boyle's Highland
B:NFID.191a
134neili
N:1:Single-note triplet |(3AAA| replaced by |~A2|.
N:2:Part 1 anacrusis |fg| replaced by |gf|.
S:DOD
L:1/8
M:C
R:hornpipe
Q:280
K:A=G
gf|eA~A2 eAfA|eA~A2 g2fg|eA~A2 ecge|dBGB d2fa|
eA~A2 egfd|eA~A2 g2fg|(3agf (3gfe fdec|dBGB d2||
fg|aA~A2 BA~A2|aA~A2 g2fg|aA~A2 edge|dBGB d2fg|
aA~A2 eA~A2|aA~A2 g2fg|(3agf ge fdeB|dBGB g2||

%%%

